style-guide/assets/xd-icons-page-tiny.svg

<svg viewBox="0 0 12 12" xmlns="http://www.w3.org/2000/svg">
  <path d="M5 7v3H3V2h6v4H6a1 1 0 0 0-1 1m5.935.326c.03-.086.047-.175.053-.265.001-.022.012-.04.012-.061V1a1 1 0 0 0-1-1H2a1 1 0 0 0-1 1v10a1 1 0 0 0 1 1h4a.985.985 0 0 0 .383-.077.986.986 0 0 0 .325-.217l3.998-3.998.004-.005a.958.958 0 0 0 .19-.283c.015-.03.023-.062.035-.094" fill="#000" fill-rule="evenodd"/>
</svg>

<?xml version="1.0" encoding="UTF-8"?>
<svg width="12px" height="12px" viewBox="0 0 12 12" version="1.1" xmlns="http://www.w3.org/2000/svg" xmlns:xlink="http://www.w3.org/1999/xlink">
    <!-- Generator: Sketch 51.3 (57544) - http://www.bohemiancoding.com/sketch -->
    <title>note</title>
    <desc>Created with Sketch.</desc>
    <defs></defs>
    <g id="note" stroke="none" stroke-width="1" fill="none" fill-rule="evenodd">
        <path d="M5,7 L5,10 L3,10 L3,2 L9,2 L9,6 L6,6 C5.447,6 5,6.448 5,7 M10.935,7.326 C10.965,7.24 10.982,7.151 10.988,7.061 C10.989,7.039 11,7.021 11,7 L11,1 C11,0.448 10.553,0 10,0 L2,0 C1.447,0 1,0.448 1,1 L1,11 C1,11.552 1.447,12 2,12 L6,12 C6.132,12 6.262,11.974 6.383,11.923 C6.506,11.872 6.616,11.799 6.708,11.706 L10.706,7.708 C10.708,7.706 10.709,7.704 10.71,7.703 C10.793,7.619 10.854,7.522 10.9,7.42 C10.915,7.39 10.923,7.358 10.935,7.326" id="Fill-1" fill="#000000"></path>
    </g>
</svg>
